Origami/64x64/apps/typora.svg

<svg width="64" height="64" version="1" xmlns="http://www.w3.org/2000/svg">
 <path d="m4.0000004 56.200069v1.999971c0 1.549978 1.2495821 2.79996 2.80076 2.79996h50.39928c1.549977 0 2.79996-1.249982 2.79996-2.79996v-1.999971c0 1.549977-1.249983 2.79996-2.79996 2.79996h-50.39928c-1.5503779 0-2.79996-1.249983-2.79996-2.79996z" style="opacity:.2"/>
 <rect transform="matrix(0,-1,-1,0,0,0)" x="-60" y="-60" width="55.999" height="55.999" rx="2.8" ry="2.8" style="fill:#cccccc"/>
 <path d="m46.999386 12.000715h-31.999543l-0.999986 15.999771h2.999958c0.400594-2.76996 0.826988-5.473922 1.456579-7.245896 1.488178-4.044742 2.651362-4.663133 6.543306-4.663133 1.888693 0 2.999957 0.609411 2.999957 1.994431v27.421608c0 2.325967 0 2.491964-4.327938 2.491964h-1.671976v3.999943h17.999743v-3.999943h-1.672476c-4.579935 0-4.327939-0.165997-4.327939-2.491964v-27.421608c0-1.38502 1.111285-1.994431 2.999958-1.994431 3.49115 0 4.769731 0.396754 6.200511 3.720746 0.859988 2.049571 1.341981 5.029528 1.799974 8.187483h2.999957z" style="opacity:.6"/>
 <path d="m6.8007812 4c-1.5511778 0-2.8007812 1.2496034-2.8007812 2.8007812v1.0019532c0-1.5511778 1.2496034-2.8007813 2.8007812-2.8007813h50.398438c1.549977 0 2.800781 1.2496035 2.800781 2.8007813v-1.0019532c0-1.5511777-1.250804-2.8007812-2.800781-2.8007812h-50.398438z" style="fill:#ffffff;opacity:.2"/>
</svg>

<svg xmlns="http://www.w3.org/2000/svg" width="64" height="64" version="1">
 <path style="opacity:0.2" d="m 4.0000004,56.200069 0,1.999971 c 0,1.549978 1.2495821,2.79996 2.80076,2.79996 L 57.20004,61 C 58.750017,61 60,59.750018 60,58.20004 l 0,-1.999971 c 0,1.549977 -1.249983,2.79996 -2.79996,2.79996 l -50.3992796,0 c -1.5503779,0 -2.79996,-1.249983 -2.79996,-2.79996 z"/>
 <rect style="fill:#cccccc" width="55.999" height="55.999" x="-60" y="-60" rx="2.8" ry="2.8" transform="matrix(0,-1,-1,0,0,0)"/>
 <path style="opacity:0.6" d="m 46.999386,12.000715 -31.999543,0 -0.999986,15.999771 2.999958,0 c 0.400594,-2.76996 0.826988,-5.473922 1.456579,-7.245896 1.488178,-4.044742 2.651362,-4.663133 6.543306,-4.663133 1.888693,0 2.999957,0.609411 2.999957,1.994431 l 0,27.421608 c 0,2.325967 0,2.491964 -4.327938,2.491964 l -1.671976,0 0,3.999943 17.999743,0 0,-3.999943 -1.672476,0 c -4.579935,0 -4.327939,-0.165997 -4.327939,-2.491964 l 0,-27.421608 c 0,-1.38502 1.111285,-1.994431 2.999958,-1.994431 3.49115,0 4.769731,0.396754 6.200511,3.720746 0.859988,2.049571 1.341981,5.029528 1.799974,8.187483 l 2.999957,0 z"/>
 <path style="opacity:0.2;fill:#ffffff" d="M 6.8007812 4 C 5.2496034 4 4 5.2496034 4 6.8007812 L 4 7.8027344 C 4 6.2515566 5.2496034 5.0019531 6.8007812 5.0019531 L 57.199219 5.0019531 C 58.749196 5.0019531 60 6.2515566 60 7.8027344 L 60 6.8007812 C 60 5.2496035 58.749196 4 57.199219 4 L 6.8007812 4 z"/>
</svg>
